assets/nxp/mono.svg

<svg viewBox="0 0 24 24" xmlns="http://www.w3.org/2000/svg"><path d="m6.79652 7.91376 2.52079 4.08625-2.52079 4.08623-4.27103-4.93862.00088 4.93805-2.52138.00057-.00499-.00704v-8.16544h2.52402l4.27103 4.93864.0003-4.93864m14.85075 2.89478c0-.55173-.27337-.86734-1.0366-.86734h-3.18808v2.31194h3.40456c.59222 0 .82012-.5576.82012-1.04216zm-.62975-2.89478c2.40287 0 2.98365 1.19381 2.98365 2.79329v.96034c0 1.2164-.53502 2.61319-2.3231 2.61319h-4.259l.00117 1.80509h-.00117l-2.5205-4.08567 2.52079-4.08625h3.59816m-6.74569.0001h-.4614l-1.70183 2.71646-1.70184-2.71645h-2.98719l2.52109 4.08596-2.52109 4.08623h2.9872l1.70184-2.71615 1.70183 2.71615h.4664l2.52019-.00029-2.5205-4.08594 2.5208-4.08596h-2.52549z"/></svg>

<svg xmlns="http://www.w3.org/2000/svg" viewBox="0 0 24 24"><path d="M6.797 7.914 9.317 12l-2.52 4.086-4.272-4.938.001 4.938H.005L0 16.08V7.914h2.524l4.271 4.938V7.914m14.851 2.895c0-.552-.273-.868-1.037-.868h-3.188v2.312h3.405c.592 0 .82-.557.82-1.042zm-.63-2.895C23.42 7.914 24 9.108 24 10.707v.96c0 1.217-.535 2.614-2.323 2.614h-4.26l.002 1.805h-.001L14.898 12l2.52-4.086zm-6.745 0h-.462l-1.702 2.716-1.701-2.716H7.418L9.94 12l-2.52 4.086h2.987l1.701-2.716 1.702 2.716h2.987L14.276 12l2.52-4.086z"/></svg>
